rospo-light/64x64/apps/phpmyadmin.svg

<?xml version="1.0" encoding="UTF-8" standalone="no"?>
<svg
   xmlns:dc="http://purl.org/dc/elements/1.1/"
   xmlns:cc="http://creativecommons.org/ns#"
   xmlns:rdf="http://www.w3.org/1999/02/22-rdf-syntax-ns#"
   xmlns:svg="http://www.w3.org/2000/svg"
   xmlns="http://www.w3.org/2000/svg"
   xmlns:sodipodi="http://sodipodi.sourceforge.net/DTD/sodipodi-0.dtd"
   xmlns:inkscape="http://www.inkscape.org/namespaces/inkscape"
   height="32"
   width="32"
   version="1"
   id="svg20"
   sodipodi:docname="phpmyadmin.svg"
   inkscape:version="0.92.1 r">
  <metadata
     id="metadata26">
    <rdf:RDF>
      <cc:Work
         rdf:about="">
        <dc:format>image/svg+xml</dc:format>
        <dc:type
           rdf:resource="http://purl.org/dc/dcmitype/StillImage" />
      </cc:Work>
    </rdf:RDF>
  </metadata>
  <defs
     id="defs24" />
  <sodipodi:namedview
     pagecolor="#ffffff"
     bordercolor="#666666"
     borderopacity="1"
     objecttolerance="10"
     gridtolerance="10"
     guidetolerance="10"
     inkscape:pageopacity="0"
     inkscape:pageshadow="2"
     inkscape:window-width="640"
     inkscape:window-height="480"
     id="namedview22"
     showgrid="false"
     inkscape:zoom="9.5"
     inkscape:cx="-4.1052632"
     inkscape:cy="16"
     inkscape:current-layer="svg20" />
  <rect
     style="opacity:1;fill:#4f4f4f;fill-opacity:1;fill-rule:evenodd;stroke:none;stroke-width:1.03534329;stroke-linecap:round;stroke-linejoin:bevel;stroke-miterlimit:4;stroke-dasharray:none;stroke-dashoffset:0;stroke-opacity:1"
     id="rect4497-3"
     width="28.203388"
     height="28.203388"
     x="1.8983059"
     y="1.8983059"
     ry="5.575182"
     inkscape:export-filename="/home/ramil/3.png"
     inkscape:export-xdpi="71"
     inkscape:export-ydpi="71" />
  <g
     id="g4512"
     transform="translate(-9.4436023e-5,0.03218042)">
    <path
       id="path8"
       style="fill:none;stroke:#a287e9;stroke-width:2;stroke-linecap:round;stroke-linejoin:bevel"
       d="m 5,15.986232 c 0,0 4,0.660359 4,-1.914004 C 9,11.497864 5.0141531,11.97231 5.0141531,11.97231 m 1.008e-4,7.99968 v -7.999576"
       inkscape:connector-curvature="0" />
    <path
       id="path12"
       style="fill:none;stroke:#ffb042;stroke-width:2;stroke-linecap:round;stroke-linejoin:round"
       d="m 19,19.985758 v -7.999526 m -5.991415,0 L 16,16 19,11.986232 m -5.991415,7.999526 v -7.999526"
       inkscape:connector-curvature="0" />
    <path
       id="path16"
       style="fill:none;stroke:#ffb042;stroke-width:2;stroke-linecap:round;stroke-linejoin:bevel"
       d="M 22.999948,16.986232 H 27 M 23.000052,19.97199 V 14.104634 M 27,19.97199 v -5.867356 m -4.000052,0 c 0,0 -0.08911,-2.13217 2.000052,-2.13217 2.089158,0 2,2.13217 2,2.13217"
       inkscape:connector-curvature="0" />
  </g>
</svg>

<?xml version="1.0" encoding="UTF-8"?>
<svg xmlns="http://www.w3.org/2000/svg" xmlns:xlink="http://www.w3.org/1999/xlink" width="48pt" height="48pt" viewBox="0 0 48 48" version="1.1">
<g id="surface1">
<path style=" stroke:none;fill-rule:evenodd;fill:rgb(30.980392%,30.980392%,30.980392%);fill-opacity:1;" d="M 11.207031 2.847656 L 36.792969 2.847656 C 41.40625 2.847656 45.152344 6.59375 45.152344 11.207031 L 45.152344 36.792969 C 45.152344 41.40625 41.40625 45.152344 36.792969 45.152344 L 11.207031 45.152344 C 6.59375 45.152344 2.847656 41.40625 2.847656 36.792969 L 2.847656 11.207031 C 2.847656 6.59375 6.59375 2.847656 11.207031 2.847656 Z M 11.207031 2.847656 "/>
<path style="fill:none;stroke-width:2;stroke-linecap:round;stroke-linejoin:bevel;stroke:rgb(63.529412%,52.941176%,91.372549%);stroke-opacity:1;stroke-miterlimit:4;" d="M 5.000094 15.986049 C 5.000094 15.986049 9.000094 16.644903 9.000094 14.071986 C 9.000094 11.49907 5.013115 11.970424 5.013115 11.970424 M 5.013115 19.970424 L 5.013115 11.970424 " transform="matrix(1.5,0,0,1.5,-0.000141655,0.0482707)"/>
<path style="fill:none;stroke-width:2;stroke-linecap:round;stroke-linejoin:round;stroke:rgb(100%,69.019608%,25.882353%);stroke-opacity:1;stroke-miterlimit:4;" d="M 19.000094 19.986049 L 19.000094 11.986049 M 13.007907 11.986049 L 16.000094 15.99907 L 19.000094 11.986049 M 13.007907 19.986049 L 13.007907 11.986049 " transform="matrix(1.5,0,0,1.5,-0.000141655,0.0482707)"/>
<path style="fill:none;stroke-width:2;stroke-linecap:round;stroke-linejoin:bevel;stroke:rgb(100%,69.019608%,25.882353%);stroke-opacity:1;stroke-miterlimit:4;" d="M 23.000094 16.986049 L 27.000094 16.986049 M 23.000094 19.970424 L 23.000094 14.103236 M 27.000094 19.970424 L 27.000094 14.103236 M 23.000094 14.103236 C 23.000094 14.103236 22.908949 11.970424 25.000094 11.970424 C 27.09124 11.970424 27.000094 14.103236 27.000094 14.103236 " transform="matrix(1.5,0,0,1.5,-0.000141655,0.0482707)"/>
</g>
</svg>
